svgs/light/paw.svg

<svg xmlns="http://www.w3.org/2000/svg" viewBox="0 0 512 512"><!-- Font Awesome Pro 6.0.0-alpha2 by @fontawesome - https://fontawesome.com License - https://fontawesome.com/license (Commercial License) --><path d="M256 224C176.631 224 64.015 346.75 64.015 424.25C64.015 459.125 90.763 480 135.759 480C184.631 480 216.878 454.875 256 454.875C295.497 454.875 327.869 480 376.241 480C421.237 480 447.985 459.125 447.985 424.25C447.985 346.75 335.369 224 256 224ZM376.241 448C355.992 448 338.494 442.25 319.87 436.125C300.246 429.625 279.873 422.875 256 422.875C232.377 422.875 212.128 429.625 192.63 436C174.006 442.25 156.383 448 135.759 448C96.013 448 96.013 430.125 96.013 424.25C96.013 361.375 196.255 256 256 256S415.987 361.375 415.987 424.25C415.987 430.125 415.987 448 376.241 448ZM474.858 161.25C471.233 160.375 467.608 160 463.984 160C438.111 160 412.363 181 403.238 211.375C392.864 246.001 407.988 279.75 437.111 286.75C440.736 287.625 444.36 288 447.985 288C473.858 288 499.606 267 508.73 236.625C519.104 202.001 503.981 168.25 474.858 161.25ZM478.108 227.375C472.733 245.25 458.484 256 447.985 256C446.86 256 445.735 255.875 444.61 255.625C440.861 254.75 437.861 252.25 435.611 248.375C431.486 241.125 430.861 230.75 433.861 220.625C439.236 202.75 453.484 192 463.984 192C465.234 192 466.359 192.125 467.358 192.375C471.108 193.25 474.108 195.75 476.358 199.625C480.482 206.875 481.107 217.25 478.108 227.375ZM318.495 190.625C322.12 191.5 325.745 192 329.369 192C357.117 192 385.49 165.125 395.989 126.75C407.863 83.375 392.364 41.5 361.492 33.375C357.867 32.5 354.242 32 350.618 32C322.87 32 294.497 58.75 283.998 97.25C272.124 140.625 287.623 182.5 318.495 190.625ZM314.87 105.625C322.245 78.5 340.368 64 350.618 64C351.617 64 352.492 64.125 353.242 64.375C357.367 65.375 360.367 69.375 362.242 72.375C367.241 81.25 370.741 97.875 365.116 118.375C357.742 145.5 339.618 160 329.244 160C328.369 160 327.494 159.875 326.744 159.625C322.62 158.625 319.62 154.625 317.745 151.625C312.746 142.75 309.246 126.125 314.87 105.625ZM182.631 192C186.255 192 189.88 191.5 193.505 190.625C224.378 182.5 239.876 140.625 228.002 97.25C217.503 58.875 189.13 32 161.382 32C157.758 32 154.133 32.5 150.508 33.375C119.636 41.5 104.137 83.375 116.011 126.75C126.51 165.125 154.883 192 182.631 192ZM149.758 72.375C151.633 69.375 154.633 65.375 158.758 64.375C159.508 64.125 160.383 64 161.257 64C171.632 64 189.755 78.5 197.13 105.625C202.754 126.125 199.254 142.75 194.255 151.625C192.38 154.625 189.38 158.625 185.256 159.625C184.506 159.875 183.631 160 182.631 160C172.382 160 154.258 145.5 146.884 118.375C141.259 97.875 144.759 81.25 149.758 72.375ZM74.889 286.75C104.012 279.75 119.136 246.001 108.762 211.375C99.637 181 73.889 160 48.016 160C44.392 160 40.767 160.375 37.142 161.25C8.019 168.25 -7.104 202.001 3.27 236.625C12.394 267 38.142 288 64.015 288C67.64 288 71.264 287.625 74.889 286.75ZM33.892 227.375C30.893 217.25 31.518 206.75 35.642 199.625C37.892 195.75 40.892 193.25 44.642 192.375C45.766 192.125 46.891 192 48.016 192C58.515 192 72.764 202.75 78.139 220.625C81.139 230.75 80.514 241.125 76.389 248.375C74.139 252.25 71.139 254.75 67.39 255.625C66.265 255.875 65.265 256 64.015 256C53.516 256 39.267 245.25 33.892 227.375Z"/></svg>

<svg xmlns="http://www.w3.org/2000/svg" viewBox="0 0 512 512"><!-- Font Awesome Pro 5.15.1 by @fontawesome - https://fontawesome.com License - https://fontawesome.com/license (Commercial License) --><path d="M256 224c-79.41 0-192 122.76-192 200.25 0 34.9 26.81 55.75 71.74 55.75 48.84 0 81.09-25.08 120.26-25.08 39.51 0 71.85 25.08 120.26 25.08 44.93 0 71.74-20.85 71.74-55.75C448 346.76 335.41 224 256 224zm120.26 224c-20.3 0-37.81-5.77-56.35-11.88-19.68-6.49-40.02-13.19-63.91-13.19-23.65 0-43.85 6.67-63.39 13.12-18.64 6.15-36.25 11.96-56.87 11.96C96 448 96 430.12 96 424.25 96 361.35 196.19 256 256 256s160 105.35 160 168.25c0 5.87 0 23.75-39.74 23.75zm98.57-286.73c-3.57-.86-7.2-1.27-10.81-1.27-25.85 0-51.62 21-60.74 51.39-10.4 34.65 4.77 68.38 33.89 75.34 3.58.86 7.2 1.27 10.81 1.27 25.85 0 51.62-21 60.74-51.39 10.4-34.65-4.77-68.38-33.89-75.34zm3.24 66.14C472.7 245.3 458.55 256 447.98 256c-1.16 0-2.29-.13-3.37-.39-3.7-.88-6.72-3.32-8.98-7.25-4.13-7.18-4.76-17.55-1.7-27.76 5.37-17.9 19.52-28.6 30.1-28.6 1.16 0 2.29.13 3.37.39 3.7.88 6.72 3.33 8.98 7.25 4.12 7.18 4.76 17.55 1.69 27.77zm-159.51-36.8c3.55.93 7.15 1.38 10.76 1.38 27.84 0 56.22-26.82 66.7-65.25 11.84-43.42-3.64-85.21-34.58-93.36a41.92 41.92 0 0 0-10.76-1.39c-27.84 0-56.22 26.82-66.7 65.26-11.84 43.42 3.64 85.22 34.58 93.36zm-3.71-84.93C322.27 78.48 340.43 64 350.68 64c.91 0 1.77.11 2.61.33 4.13 1.09 7.12 5 8.9 8.09 5.08 8.8 8.52 25.48 2.95 45.91-7.42 27.19-25.57 41.67-35.83 41.67-.91 0-1.77-.11-2.62-.33-4.12-1.08-7.12-4.99-8.9-8.08-5.07-8.81-8.51-25.48-2.94-45.91zM182.68 192c3.61 0 7.21-.45 10.76-1.38 30.94-8.14 46.42-49.94 34.58-93.36C217.54 58.82 189.16 32 161.32 32c-3.61 0-7.21.45-10.76 1.39-30.94 8.14-46.42 49.94-34.58 93.36 10.48 38.43 38.87 65.25 66.7 65.25zM149.8 72.42c1.78-3.09 4.78-7 8.9-8.09.85-.22 1.7-.33 2.61-.33 10.26 0 28.41 14.48 35.83 41.68 5.57 20.43 2.13 37.11-2.95 45.91-1.78 3.09-4.77 7-8.9 8.08-.85.22-1.7.33-2.61.33-10.26 0-28.41-14.48-35.83-41.68-5.57-20.42-2.13-37.1 2.95-45.9zM74.84 286.73c29.12-6.96 44.29-40.69 33.88-75.34C99.6 181 73.83 160 47.98 160c-3.62 0-7.24.41-10.81 1.27-29.12 6.96-44.29 40.69-33.89 75.34C12.4 267 38.18 288 64.02 288c3.62 0 7.24-.41 10.82-1.27zM33.93 227.4c-3.06-10.21-2.43-20.59 1.7-27.76 2.26-3.93 5.28-6.37 8.98-7.25 1.08-.26 2.21-.39 3.37-.39 10.57 0 24.72 10.7 30.09 28.59 3.06 10.21 2.43 20.59-1.7 27.77-2.26 3.93-5.28 6.37-8.98 7.25-1.1.26-2.2.39-3.37.39-10.57 0-24.72-10.7-30.09-28.6z"/></svg>
